X:305
T: Der Reiter und sein Liebchen (53d), S. 171
N: T0194
O: Luxemburg
S: Singendes Volk, Esch-Alzette 1937 posth.]
N: Rodershausen, hhh Th. Lentz, 1930, mitgeteilt:
N: hhh Josef Bour (Lehrer)
R: Liebeslieder]
M: 3/4
L: 1/16
K: G
D4 | G4G4A3A | B4B4
G3B | d4d2d2e2e2 | d4z4
d2d2 | e4c2e2e2e2 | d4B4
d2e2 | d4A4B4 | B4d4
d2d2 | e4c2e2e2e2 | d4B4
d2e2 | d4A4B4 | G8

